(Exported by FreeCAD)
(Post Processor: grbl_post)
(Output Time:2026-03-17 12:03:34.079274)
(Begin preamble)
G17 G90
G21
(Begin operation: TC: 2.5mm Drillbit001)
(Path: TC: 2.5mm Drillbit001)
(TC: 2.5mm Drillbit001)
(Begin toolchange)
( M6 T4 )
M3 S18000
(Finish operation: TC: 2.5mm Drillbit001)
(Begin operation: Fixture)
(Path: Fixture)
G54
(Finish operation: Fixture)
(Begin operation: DrillingMountingHoles001)
(Path: DrillingMountingHoles001)
(DrillingMountingHoles001)
(Begin Drilling)
G90
G0 Z5.020
( G98 )
G0 X4.291 Y5.600
G0 Z3.020
(G81 X4.291 Y5.600 Z-2.500 F75.000 R3.000)
G0 X4.291 Y5.600
G0 Z3.000
G1 Z-2.500 F75.00
G0 Z3.020
G0 X4.291 Y44.600
(G81 X4.291 Y44.600 Z-2.500 F75.000 R3.000)
G0 X4.291 Y44.600
G0 Z3.000
G1 Z-2.500 F75.00
G0 Z3.020
G0 X64.291 Y44.600
(G81 X64.291 Y44.600 Z-2.500 F75.000 R3.000)
G0 X64.291 Y44.600
G0 Z3.000
G1 Z-2.500 F75.00
G0 Z3.020
G0 X64.291 Y5.600
(G81 X64.291 Y5.600 Z-2.500 F75.000 R3.000)
G0 X64.291 Y5.600
G0 Z3.000
G1 Z-2.500 F75.00
G0 Z3.020
( G80 )
G0 Z5.020
(Finish operation: DrillingMountingHoles001)
(Begin postamble)
M5
G17 G90
M2
