(Exported by FreeCAD)
(Post Processor: grbl_post)
(Output Time:2026-03-17 12:03:33.192501)
(Begin preamble)
G17 G90
G21
(Begin operation: TC: 1mm Drill001)
(Path: TC: 1mm Drill001)
(TC: 1mm Drill001)
(Begin toolchange)
( M6 T3 )
M3 S18000
(Finish operation: TC: 1mm Drill001)
(Begin operation: Fixture)
(Path: Fixture)
G54
(Finish operation: Fixture)
(Begin operation: DrillingThroughHoles001)
(Path: DrillingThroughHoles001)
(DrillingThroughHoles001)
(Begin Drilling)
G90
G0 Z5.020
( G98 )
G0 X12.113 Y17.554
G0 Z3.020
(G81 X12.113 Y17.554 Z-2.500 F75.000 R3.000)
G0 X12.113 Y17.554
G0 Z3.000
G1 Z-2.500 F75.00
G0 Z3.020
G0 X14.653 Y17.554
(G81 X14.653 Y17.554 Z-2.500 F75.000 R3.000)
G0 X14.653 Y17.554
G0 Z3.000
G1 Z-2.500 F75.00
G0 Z3.020
G0 X17.193 Y17.554
(G81 X17.193 Y17.554 Z-2.500 F75.000 R3.000)
G0 X17.193 Y17.554
G0 Z3.000
G1 Z-2.500 F75.00
G0 Z3.020
G0 X19.733 Y17.554
(G81 X19.733 Y17.554 Z-2.500 F75.000 R3.000)
G0 X19.733 Y17.554
G0 Z3.000
G1 Z-2.500 F75.00
G0 Z3.020
G0 X28.039 Y17.680
(G81 X28.039 Y17.680 Z-2.500 F75.000 R3.000)
G0 X28.039 Y17.680
G0 Z3.000
G1 Z-2.500 F75.00
G0 Z3.020
G0 X28.039 Y15.140
(G81 X28.039 Y15.140 Z-2.500 F75.000 R3.000)
G0 X28.039 Y15.140
G0 Z3.000
G1 Z-2.500 F75.00
G0 Z3.020
G0 X28.039 Y6.220
(G81 X28.039 Y6.220 Z-2.500 F75.000 R3.000)
G0 X28.039 Y6.220
G0 Z3.000
G1 Z-2.500 F75.00
G0 Z3.020
G0 X28.039 Y3.680
(G81 X28.039 Y3.680 Z-2.500 F75.000 R3.000)
G0 X28.039 Y3.680
G0 Z3.000
G1 Z-2.500 F75.00
G0 Z3.020
G0 X55.039 Y3.680
(G81 X55.039 Y3.680 Z-2.500 F75.000 R3.000)
G0 X55.039 Y3.680
G0 Z3.000
G1 Z-2.500 F75.00
G0 Z3.020
G0 X55.039 Y6.220
(G81 X55.039 Y6.220 Z-2.500 F75.000 R3.000)
G0 X55.039 Y6.220
G0 Z3.000
G1 Z-2.500 F75.00
G0 Z3.020
G0 X55.039 Y15.140
(G81 X55.039 Y15.140 Z-2.500 F75.000 R3.000)
G0 X55.039 Y15.140
G0 Z3.000
G1 Z-2.500 F75.00
G0 Z3.020
G0 X55.039 Y17.680
(G81 X55.039 Y17.680 Z-2.500 F75.000 R3.000)
G0 X55.039 Y17.680
G0 Z3.000
G1 Z-2.500 F75.00
G0 Z3.020
G0 X17.955 Y37.716
(G81 X17.955 Y37.716 Z-2.500 F75.000 R3.000)
G0 X17.955 Y37.716
G0 Z3.000
G1 Z-2.500 F75.00
G0 Z3.020
G0 X15.415 Y37.716
(G81 X15.415 Y37.716 Z-2.500 F75.000 R3.000)
G0 X15.415 Y37.716
G0 Z3.000
G1 Z-2.500 F75.00
G0 Z3.020
G0 X12.875 Y37.716
(G81 X12.875 Y37.716 Z-2.500 F75.000 R3.000)
G0 X12.875 Y37.716
G0 Z3.000
G1 Z-2.500 F75.00
G0 Z3.020
G0 X10.335 Y37.716
(G81 X10.335 Y37.716 Z-2.500 F75.000 R3.000)
G0 X10.335 Y37.716
G0 Z3.000
G1 Z-2.500 F75.00
G0 Z3.020
( G80 )
G0 Z5.020
(Finish operation: DrillingThroughHoles001)
(Begin postamble)
M5
G17 G90
M2
