(Exported by FreeCAD)
(Post Processor: grbl_post)
(Output Time:2026-03-11 19:31:37.612749)
(Begin preamble)
G17 G90
G21
(Begin operation: TC: 1mm Drill)
(Path: TC: 1mm Drill)
(TC: 1mm Drill)
(Begin toolchange)
( M6 T3 )
M3 S18000
(Finish operation: TC: 1mm Drill)
(Begin operation: Fixture)
(Path: Fixture)
G54
(Finish operation: Fixture)
(Begin operation: DrillingThroughHoles)
(Path: DrillingThroughHoles)
(DrillingThroughHoles)
(Begin Drilling)
G90
G0 Z5.000
( G98 )
G0 X29.300 Y3.600
G0 Z3.000
(G81 X29.300 Y3.600 Z-2.000 F100.000 R3.000)
G0 X29.300 Y3.600
G1 Z-2.000 F100.00
G0 Z3.000
G0 X29.300 Y6.140
(G81 X29.300 Y6.140 Z-2.000 F100.000 R3.000)
G0 X29.300 Y6.140
G1 Z-2.000 F100.00
G0 Z3.000
G0 X29.300 Y15.060
(G81 X29.300 Y15.060 Z-2.000 F100.000 R3.000)
G0 X29.300 Y15.060
G1 Z-2.000 F100.00
G0 Z3.000
G0 X29.300 Y17.600
(G81 X29.300 Y17.600 Z-2.000 F100.000 R3.000)
G0 X29.300 Y17.600
G1 Z-2.000 F100.00
G0 Z3.000
G0 X24.686 Y35.049
(G81 X24.686 Y35.049 Z-2.000 F100.000 R3.000)
G0 X24.686 Y35.049
G1 Z-2.000 F100.00
G0 Z3.000
G0 X22.146 Y35.049
(G81 X22.146 Y35.049 Z-2.000 F100.000 R3.000)
G0 X22.146 Y35.049
G1 Z-2.000 F100.00
G0 Z3.000
G0 X19.606 Y35.049
(G81 X19.606 Y35.049 Z-2.000 F100.000 R3.000)
G0 X19.606 Y35.049
G1 Z-2.000 F100.00
G0 Z3.000
G0 X13.210 Y33.800
(G81 X13.210 Y33.800 Z-2.000 F100.000 R3.000)
G0 X13.210 Y33.800
G1 Z-2.000 F100.00
G0 Z3.000
G0 X10.670 Y33.800
(G81 X10.670 Y33.800 Z-2.000 F100.000 R3.000)
G0 X10.670 Y33.800
G1 Z-2.000 F100.00
G0 Z3.000
G0 X8.130 Y33.800
(G81 X8.130 Y33.800 Z-2.000 F100.000 R3.000)
G0 X8.130 Y33.800
G1 Z-2.000 F100.00
G0 Z3.000
G0 X5.590 Y33.800
(G81 X5.590 Y33.800 Z-2.000 F100.000 R3.000)
G0 X5.590 Y33.800
G1 Z-2.000 F100.00
G0 Z3.000
G0 X56.300 Y17.600
(G81 X56.300 Y17.600 Z-2.000 F100.000 R3.000)
G0 X56.300 Y17.600
G1 Z-2.000 F100.00
G0 Z3.000
G0 X56.300 Y15.060
(G81 X56.300 Y15.060 Z-2.000 F100.000 R3.000)
G0 X56.300 Y15.060
G1 Z-2.000 F100.00
G0 Z3.000
G0 X56.300 Y6.140
(G81 X56.300 Y6.140 Z-2.000 F100.000 R3.000)
G0 X56.300 Y6.140
G1 Z-2.000 F100.00
G0 Z3.000
G0 X56.300 Y3.600
(G81 X56.300 Y3.600 Z-2.000 F100.000 R3.000)
G0 X56.300 Y3.600
G1 Z-2.000 F100.00
G0 Z3.000
( G80 )
G0 Z5.000
(Finish operation: DrillingThroughHoles)
(Begin postamble)
M5
G17 G90
M2
